X:1
T:Pop Drums
M:4/4
L:1/16
Q:1/4=100
K:C
%%MIDI channel 10
% Standard pop beat - Kick=C1, Snare=D1, Closed HH=F#1, Open HH=A#1
|: C,,2^F,,2 ^F,,2^F,,2 D,,2^F,,2 ^F,,2^F,,2 | C,,2^F,,2 ^F,,2C,,2 D,,2^F,,2 ^F,,2^A,,2 |
C,,2^F,,2 ^F,,2^F,,2 D,,2^F,,2 ^F,,2^F,,2 | C,,2^F,,2 ^F,,2C,,2 D,,2^F,,2 D,,2^F,,2 |
C,,2^F,,2 ^F,,2^F,,2 D,,2^F,,2 ^F,,2^F,,2 | C,,2^F,,2 ^F,,2C,,2 D,,2^F,,2 ^F,,2^A,,2 |
C,,2^F,,2 ^F,,2^F,,2 D,,2^F,,2 ^F,,2^F,,2 | C,,2^F,,2 ^F,,2C,,2 D,,4 D,,4 :|
